icons/outline/building-cog.svg

<!--
category: Buildings
tags: [flat, office, city, urban, scyscraper, architecture, construction]
unicode: "10062"
version: "3.19"
-->
<svg
  xmlns="http://www.w3.org/2000/svg"
  width="24"
  height="24"
  viewBox="0 0 24 24"
  fill="none"
  stroke="currentColor"
  stroke-width="2"
  stroke-linecap="round"
  stroke-linejoin="round"
>
  <path d="M3 21h9m-3 -13h1m-1 4h1m-1 4h1m4 -8h1m-1 4h1m-10 9v-16c0 -.53 .211 -1.039 .586 -1.414c.375 -.375 .884 -.586 1.414 -.586h10c.53 0 1.039 .211 1.414 .586c.375 .375 .586 .884 .586 1.414v7m-3 6c0 .53 .211 1.039 .586 1.414c.375 .375 .884 .586 1.414 .586c.53 0 1.039 -.211 1.414 -.586c.375 -.375 .586 -.884 .586 -1.414c0 -.53 -.211 -1.039 -.586 -1.414c-.375 -.375 -.884 -.586 -1.414 -.586c-.53 0 -1.039 .211 -1.414 .586c-.375 .375 -.586 .884 -.586 1.414zm2 -3.5v1.5m0 4v1.5m3.032 -5.25l-1.299 .75m-3.463 2l-1.3 .75m0 -3.5l1.3 .75m3.463 2l1.3 .75" />
</svg>

<!--
category: Buildings
tags: [flat, office, city, urban, scyscraper, architecture, construction]
unicode: "10062"
version: "3.19"
-->
<svg
  xmlns="http://www.w3.org/2000/svg"
  width="24"
  height="24"
  viewBox="0 0 24 24"
  fill="none"
  stroke="currentColor"
  stroke-width="2"
  stroke-linecap="round"
  stroke-linejoin="round"
>
    <path d="M3 21h9M9 8h1M9 12h1M9 16h1M14 8h1M14 12h1M5 21v-16c0 -.53 .211 -1.039 .586 -1.414c.375 -.375 .884 -.586 1.414 -.586h10c.53 0 1.039 .211 1.414 .586c.375 .375 .586 .884 .586 1.414v7M16 18c0 .53 .211 1.039 .586 1.414c.375 .375 .884 .586 1.414 .586c.53 0 1.039 -.211 1.414 -.586c.375 -.375 .586 -.884 .586 -1.414c0 -.53 -.211 -1.039 -.586 -1.414c-.375 -.375 -.884 -.586 -1.414 -.586c-.53 0 -1.039 .211 -1.414 .586c-.375 .375 -.586 .884 -.586 1.414zM18 14.5v1.5M18 20v1.5M21.032 16.25l-1.299 .75M16.27 19l-1.3 .75M14.97 16.25l1.3 .75M19.733 19l1.3 .75" />
</svg>
